resources/svg/doc-o.svg

<svg xmlns="http://www.w3.org/2000/svg" viewBox="0 0 15 15" fill="none"><path d="M2.5 6.5V6H2V6.5H2.5ZM2.5 10.5H2V11H2.5V10.5ZM12.5 6.5H13V6H12.5V6.5ZM12.5 10.5V11H13V10.5H12.5ZM13.5 3.5H14V3.29289L13.8536 3.14645L13.5 3.5ZM10.5 0.5L10.8536 0.146447L10.7071 0H10.5V0.5ZM2 6.5V10.5H3V6.5H2ZM2.5 11H3.5V10H2.5V11ZM5 9.5V7.5H4V9.5H5ZM3.5 6H2.5V7H3.5V6ZM5 7.5C5 6.67157 4.32843 6 3.5 6V7C3.77614 7 4 7.22386 4 7.5H5ZM3.5 11C4.32843 11 5 10.3284 5 9.5H4C4 9.77614 3.77614 10 3.5 10V11ZM6 7.5V9.5H7V7.5H6ZM9 9.5V7.5H8V9.5H9ZM9 7.5C9 6.67157 8.32843 6 7.5 6V7C7.77614 7 8 7.22386 8 7.5H9ZM7.5 11C8.32843 11 9 10.3284 9 9.5H8C8 9.77614 7.77614 10 7.5 10V11ZM6 9.5C6 10.3284 6.67157 11 7.5 11V10C7.22386 10 7 9.77614 7 9.5H6ZM7 7.5C7 7.22386 7.22386 7 7.5 7V6C6.67157 6 6 6.67157 6 7.5H7ZM10 6V11H11V6H10ZM10.5 7H12.5V6H10.5V7ZM12 6.5V8H13V6.5H12ZM10.5 11H12.5V10H10.5V11ZM13 10.5V9H12V10.5H13ZM2 5V1.5H1V5H2ZM13 3.5V5H14V3.5H13ZM2.5 1H10.5V0H2.5V1ZM10.1464 0.853553L13.1464 3.85355L13.8536 3.14645L10.8536 0.146447L10.1464 0.853553ZM2 1.5C2 1.22386 2.22386 1 2.5 1V0C1.67157 0 1 0.671573 1 1.5H2ZM1 12V13.5H2V12H1ZM2.5 15H12.5V14H2.5V15ZM14 13.5V12H13V13.5H14ZM12.5 15C13.3284 15 14 14.3284 14 13.5H13C13 13.7761 12.7761 14 12.5 14V15ZM1 13.5C1 14.3284 1.67157 15 2.5 15V14C2.22386 14 2 13.7761 2 13.5H1Z" fill="black"/></svg>

<svg xmlns="http://www.w3.org/2000/svg" viewBox="0 0 15 15" fill="none"><path d="M2.5 6.5V6H2v.5h.5zm0 4H2v.5h.5v-.5zm10-4h.5V6h-.5v.5zm0 4v.5h.5v-.5h-.5zm1-7h.5v-.207l-.146-.147-.354.354zm-3-3l.354-.354L10.707 0H10.5v.5zM2 6.5v4h1v-4H2zm.5 4.5h1v-1h-1v1zM5 9.5v-2H4v2h1zM3.5 6h-1v1h1V6zM5 7.5A1.5 1.5 0 003.5 6v1a.5.5 0 01.5.5h1zM3.5 11A1.5 1.5 0 005 9.5H4a.5.5 0 01-.5.5v1zM6 7.5v2h1v-2H6zm3 2v-2H8v2h1zm0-2A1.5 1.5 0 007.5 6v1a.5.5 0 01.5.5h1zM7.5 11A1.5 1.5 0 009 9.5H8a.5.5 0 01-.5.5v1zM6 9.5A1.5 1.5 0 007.5 11v-1a.5.5 0 01-.5-.5H6zm1-2a.5.5 0 01.5-.5V6A1.5 1.5 0 006 7.5h1zM10 6v5h1V6h-1zm.5 1h2V6h-2v1zm1.5-.5V8h1V6.5h-1zM10.5 11h2v-1h-2v1zm2.5-.5V9h-1v1.5h1zM2 5V1.5H1V5h1zm11-1.5V5h1V3.5h-1zM2.5 1h8V0h-8v1zm7.646-.146l3 3 .708-.708-3-3-.708.708zM2 1.5a.5.5 0 01.5-.5V0A1.5 1.5 0 001 1.5h1zM1 12v1.5h1V12H1zm1.5 3h10v-1h-10v1zM14 13.5V12h-1v1.5h1zM12.5 15a1.5 1.5 0 001.5-1.5h-1a.5.5 0 01-.5.5v1zM1 13.5A1.5 1.5 0 002.5 15v-1a.5.5 0 01-.5-.5H1z" fill="currentColor"/></svg>
